X: 3
T:  
M: 12/4
L: 1/8
R: single jig
K: Gmaj
|: g3 g2 f d2 g g3 | d2 g g3 d2 e f2 d |
g3 g2 f d2 g g3 | a3 a2 g a2 g f2 a :|
|: e2 B B3 e2 f g2 d | e2 B B3 d2 B A2 B |
e2 B B3 e2 f g2 e | d2 B A2 B d2 e f2 d :|
